X:1
T:Loving Nancy
M:3/2
L:1/4
K:D
G/2-A/2 BB/2-G/2| A3/2- G/2- FG/2-F/2 A A|(3G3.99999962500005/11.9999985000002G3.99999962500005/11.9999985000002F3.99999962500005/11.9999985000002G3.99999962500005/11.9999985000002F3.99999962500005/11.9999985000002D3.99999962500005/11.9999985000002 D2 D E D|\
 G- A2G/2-F/2 D =C| D3F/2-A/2 B B| A3 G/2F/2| A A|G/2-F/2 D2 DF/2-D/2 F|\
 G- A2 G/2F/2 D =C| D3||
